X:0527
T:Allemanda
M:2/4
L:1/16
Q:1/4=120
I: :: ::
Z:Jack Campin * www.campin.me.uk * 2009
K:C
G2|:c2d2``e2f2 |g3`a`````g2f2|(eg).e.c (df).d.B|(cBcd) c2G2   |
    c2d2``e2f2 |g3`a`````g2f2|(eg).e.c (df).d.B| c4    c4    ::
    e4    d4   |e2e2 ({g}f4) | e2e2     d2d2   | e2e2 (f4{ef})|
    g2c'2`g2c'2|g3`a`````g2f2| egec     dfdB   | c4    c4    :|

